lib/svgs/circle-error-o.svg

<svg xmlns="http://www.w3.org/2000/svg" viewBox="0 0 20 20">
    <path fill="#000" fill-rule="evenodd" d="M10,16.8 C6.25,16.8 3.2,13.75 3.2,10 C3.2,6.25 6.25,3.2 10,3.2 C13.75,3.2 16.8,6.25 16.8,10 C16.8,13.75 13.75,16.8 10,16.8 L10,16.8 L10,16.8 L10,16.8 Z M10,2 C5.582,2 2,5.582 2,10 C2,14.418 5.582,18 10,18 C14.418,18 18,14.418 18,10 C18,5.582 14.418,2 10,2 L10,2 L10,2 L10,2 Z M12.7814,7.2188 C12.5474,6.9848 12.1674,6.9848 11.9324,7.2188 L10.0004,9.1518 L8.0674,7.2188 C7.8334,6.9848 7.4534,6.9848 7.2194,7.2188 C6.9844,7.4528 6.9844,7.8328 7.2194,8.0678 L9.1514,9.9998 L7.2194,11.9328 C6.9844,12.1668 6.9844,12.5468 7.2194,12.7808 C7.3364,12.8988 7.4894,12.9568 7.6434,12.9568 C7.7964,12.9568 7.9504,12.8988 8.0674,12.7808 L10.0004,10.8488 L11.9324,12.7808 C12.0504,12.8988 12.2034,12.9568 12.3574,12.9568 C12.5104,12.9568 12.6644,12.8988 12.7814,12.7808 C13.0154,12.5468 13.0154,12.1668 12.7814,11.9328 L10.8484,9.9998 L12.7814,8.0678 C13.0154,7.8328 13.0154,7.4528 12.7814,7.2188"/>
</svg>

<svg xmlns="http://www.w3.org/2000/svg" viewBox="0 0 20 20">
    <path fill="#000" fill-rule="evenodd" d="M10 16.8c-3.75 0-6.8-3.05-6.8-6.8S6.25 3.2 10 3.2s6.8 3.05 6.8 6.8-3.05 6.8-6.8 6.8M10 2a8 8 0 1 0 0 16 8 8 0 0 0 0-16m2.781 5.219a.601.601 0 0 0-.849 0L10 9.152 8.067 7.219a.6.6 0 1 0-.848.849L9.151 10 7.22 11.933a.598.598 0 0 0 .424 1.024.595.595 0 0 0 .424-.176L10 10.849l1.932 1.932a.597.597 0 0 0 .85 0 .6.6 0 0 0 0-.848L10.847 10l1.933-1.932a.601.601 0 0 0 0-.85"/>
</svg>
